X: 21602
T: the Lass of the Hill
%R: waltz
B: James Oswald "The Caledonian Pocket Companion" v.2 p.160 #2
Z: 2018 John Chambers <jc:trillian.mit.edu>
M: 3/4
L: 1/8
K: G
Q: "Slow"
(Bc) |\
d2(cB)(AG) | F3GA2 | {GA}B2D2D2 | D4(GF) |\
E3FG2 | A>Bc2B2 | (ce)(dB)(AG) | (G2A2)(FG) |
A2A2(B^c) |  d2A2B2 | A2(GF)(ED) | (D2E2)(FG) |\
A2(GF)(ED) | d2D2D2 | (GB)(AF)(GE) | D4(FA) |
d2(cB)(cA) | (BA)(GA)(Bc) | (dc)(BA)(G=F) | (=F2E2)(cd) |\
(ec)(Ae)(dc) | (dB)G2D2 | (Ec)(BA)(GF) | G4 :|
|: (Bc) |\
(dB)(ec)(BA) | G2(FA)(GB) | (Ad)(AF) (GE) | D4 (d/B/G) |\
E>G ((3GFA) ((3AGB) | ((3BAc) ((3cBd) ((3dce) | d2(cB)(AG) | (G2A2)F>G |
A2 ((3agf) ((3ed^c) | d2 ((3fdA) ((3BdB) | A2(GF)(ED) | (D2E2)F>G |\
((3AFD) ((3BGE) ((3^cAF) | ((3dfe) ((3d^cB) ((3AGF) | B(c/d/)F2TE2 | D4 ((3DFA) |
d2 ((3dBd) ((3cAc) | TB3/(A//B//) Tc3/(B//c//) d3/(c//d//) | e2 ((3dcB) ((3AG=F) | =F2E2 ((3ceg) |\
((3gec) ((3Ace) ((3gec) | ((3dBG) G2 ((3BGD) | (Ec)(BA)(GF) | G4 :|
